;FLAVOR:Marlin
;TIME:2026
;Filament used: 1.3981m
;Layer height: 0.2
;MINX:75.637
;MINY:73.335
;MINZ:0.2
;MAXX:136.632
;MAXY:133.613
;MAXZ:4.92
;Generated with Cura_SteamEngine 5.2.1
M82 ;absolute extrusion mode
G21                                        ; metric values
G90                                        ; absolute positioning
M82                                        ; absolute extrusion mode
M104 S120                                  ; set hotend to 120
M190 S55           ; wait for bed
M300 S1000 P500                            ; BEEP heating done
G28                                        ; home
G0 Z5 F500                                 ; move up some
G0 X2 Y2 F2000                             ; Move to start line purge
G0 Z0.2 F500                               ; move down to purge line start
M109 S200         ; wait for hotend
G92 E0                                     ; zero the extruded length
G1 X50 E25 F500                            ; Extrude 25mm of filament in a 5cm line.
G92 E0                                     ; zero the extruded length again
G1 F300 E-1                                ; retact alittle
G1 X100 F4000                              ; Quickly wipe away from the filament line`
G92 E0
G92 E0
G1 F2400 E-1
;LAYER_COUNT:23
;LAYER:0
M107
M204 S2000
M205 X10 Y10
G1 F600 Z1.2
G0 F2400 X76.645 Y74.7 Z1.2
M204 S1000
M205 X8 Y8
;TYPE:SKIRT
G1 F600 Z0.2
G1 F2400 E0
G1 X77.048 Y74.304 E0.01654
G1 X77.502 Y73.968 E0.03307
G1 X78 Y73.699 E0.04963
G1 X78.53 Y73.503 E0.06617
G1 X79.083 Y73.384 E0.08273
G1 X79.666 Y73.335 E0.09985
G1 X82.992 Y73.335 E0.1972
G1 X83.7 Y73.346 E0.21793
G1 X84.255 Y73.394 E0.23423
G1 X84.728 Y73.468 E0.24825
G1 X87.464 Y73.858 E0.32913
G1 X90.154 Y74.164 E0.40838
G1 X92.987 Y74.406 E0.4916
G1 X93.752 Y74.547 E0.51436
G1 X95.947 Y75.178 E0.58121
G1 X98.592 Y75.868 E0.66122
G1 X101.244 Y76.478 E0.74087
G1 X103.881 Y77.008 E0.81959
G1 X106.59 Y77.472 E0.90004
G1 X109.273 Y77.854 E0.97936
G1 X111.921 Y78.155 E1.05736
G1 X114.66 Y78.388 E1.13782
G1 X117.404 Y78.545 E1.21826
G1 X120.07 Y78.62 E1.29632
G1 X122.782 Y78.62 E1.3757
G1 X126.503 Y78.496 E1.48467
G1 X127.558 Y78.442 E1.51559
G1 X128.171 Y78.446 E1.53353
G1 X128.698 Y78.477 E1.54898
G1 X129.247 Y78.55 E1.56519
G1 X130.03 Y78.721 E1.58865
G1 X130.632 Y78.905 E1.60708
G1 X131.313 Y79.192 E1.62871
G1 X131.791 Y79.434 E1.64439
G1 X132.486 Y79.863 E1.66829
G1 X132.932 Y80.195 E1.68457
G1 X133.547 Y80.74 E1.70862
G1 X133.973 Y81.195 E1.72686
G1 X134.393 Y81.72 E1.74654
G1 X134.76 Y82.264 E1.76575
G1 X135.085 Y82.844 E1.78521
G1 X135.365 Y83.464 E1.80512
G1 X135.597 Y84.119 E1.82546
G1 X135.774 Y84.766 E1.84509
G1 X135.894 Y85.502 E1.86691
G1 X135.944 Y86.13 E1.88535
G1 X135.944 Y86.947 E1.90927
G1 X135.867 Y88.038 E1.94128
G1 X135.771 Y89.177 E1.97473
G1 X135.62 Y91.881 E2.054
G1 X135.545 Y94.621 E2.13423
G1 X135.547 Y97.329 E2.21349
G1 X135.627 Y100.039 E2.29284
G1 X135.782 Y102.741 E2.37206
G1 X136.012 Y105.422 E2.45081
G1 X136.507 Y109.495 E2.5709
G1 X136.582 Y110.021 E2.58645
G1 X136.632 Y110.609 E2.60373
G1 X136.632 Y113.945 E2.70137
G1 X136.621 Y114.653 E2.72209
G1 X136.573 Y115.208 E2.7384
G1 X136.494 Y115.714 E2.75339
G1 X136.109 Y118.417 E2.8333
G1 X135.806 Y121.08 E2.91175
G1 X135.565 Y123.922 E2.99523
G1 X135.477 Y124.481 E3.01179
G1 X135.312 Y125.021 E3.02832
G1 X135.072 Y125.533 E3.04487
G1 X134.682 Y126.128 E3.06569
G1 X132.297 Y128.612 E3.16648
G1 X130.474 Y130.627 E3.24601
G1 X129.546 Y131.713 E3.28782
G1 X129.078 Y132.245 E3.30856
G1 X128.676 Y132.642 E3.3251
G1 X128.221 Y132.978 E3.34165
G1 X127.724 Y133.247 E3.35819
G1 X127.194 Y133.443 E3.37473
G1 X126.641 Y133.563 E3.39129
G1 X126.059 Y133.612 E3.40839
G1 X89.852 Y133.613 E4.46813
G1 X89.151 Y133.603 E4.48865
G1 X88.588 Y133.555 E4.50519
G1 X88.037 Y133.428 E4.52174
G1 X87.509 Y133.224 E4.5383
G1 X87.016 Y132.949 E4.55483
G1 X86.566 Y132.606 E4.57139
G1 X86.169 Y132.204 E4.58792
G1 X85.771 Y131.665 E4.60753
G1 X84.901 Y129.982 E4.66299
G1 X83.61 Y127.594 E4.74244
G1 X82.262 Y125.259 E4.82135
G1 X80.827 Y122.93 E4.90142
G1 X79.347 Y120.67 E4.98049
G1 X77.782 Y118.425 E5.06059
G1 X76.717 Y116.986 E5.11299
G1 X76.401 Y116.547 E5.12882
G1 X76.104 Y116.066 E5.14537
G1 X75.877 Y115.548 E5.16192
G1 X75.726 Y115.003 E5.17847
G1 X75.638 Y114.227 E5.20133
G1 X75.637 Y77.963 E6.26274
G1 X75.647 Y77.285 E6.28258
G1 X75.696 Y76.722 E6.29913
G1 X75.823 Y76.171 E6.31568
G1 X76.026 Y75.643 E6.33223
G1 X76.302 Y75.15 E6.34877
G1 X76.645 Y74.7 E6.36533
M204 S2000
M205 X10 Y10
G0 X77.038 Y74.863
M204 S1000
M205 X8 Y8
G1 X77.436 Y74.503 E6.38104
G1 X77.882 Y74.206 E6.39672
G1 X78.368 Y73.979 E6.41242
G1 X78.882 Y73.826 E6.42812
G1 X79.619 Y73.736 E6.44985
G1 X82.986 Y73.735 E6.5484
G1 X83.694 Y73.746 E6.56912
G1 X84.193 Y73.789 E6.58378
G1 X84.677 Y73.865 E6.59812
G1 X87.4 Y74.253 E6.67863
G1 X90.114 Y74.562 E6.75857
G1 X92.952 Y74.804 E6.84194
G1 X93.641 Y74.931 E6.86245
G1 X95.841 Y75.564 E6.92945
G1 X98.508 Y76.259 E7.01012
G1 X101.148 Y76.866 E7.0894
G1 X103.847 Y77.408 E7.16998
G1 X106.497 Y77.863 E7.24868
G1 X109.208 Y78.249 E7.32882
G1 X111.914 Y78.556 E7.40853
G1 X114.639 Y78.788 E7.48858
G1 X117.334 Y78.942 E7.56759
G1 X120.095 Y79.02 E7.64843
G1 X122.795 Y79.02 E7.72746
G1 X126.539 Y78.896 E7.8371
G1 X127.579 Y78.842 E7.86758
G1 X128.161 Y78.846 E7.88462
G1 X128.934 Y78.891 E7.90728
G1 X129.938 Y79.11 E7.93736
G1 X130.492 Y79.28 E7.95432
G1 X131.398 Y79.662 E7.9831
G1 X132.27 Y80.2 E8.01309
G1 X132.672 Y80.498 E8.02773
G1 X133.277 Y81.035 E8.05141
G1 X133.661 Y81.445 E8.06785
G1 X134.081 Y81.97 E8.08753
G1 X134.411 Y82.459 E8.1048
G1 X134.736 Y83.039 E8.12426
G1 X134.988 Y83.597 E8.14218
G1 X135.22 Y84.252 E8.16251
G1 X135.383 Y84.844 E8.18049
G1 X135.499 Y85.565 E8.20186
G1 X135.544 Y86.13 E8.21845
G1 X135.544 Y86.934 E8.24198
G1 X135.468 Y88.004 E8.27338
G1 X135.371 Y89.154 E8.30716
G1 X135.22 Y91.849 E8.38616
G1 X135.145 Y94.611 E8.46703
G1 X135.147 Y97.34 E8.54691
G1 X135.226 Y100.039 E8.62594
G1 X135.382 Y102.762 E8.70577
G1 X135.615 Y105.475 E8.78547
G1 X136.111 Y109.557 E8.90582
G1 X136.186 Y110.078 E8.92123
G1 X136.232 Y110.622 E8.93721
G1 X136.232 Y113.939 E9.03429
G1 X136.221 Y114.647 E9.05502
G1 X136.178 Y115.146 E9.06968
G1 X136.099 Y115.652 E9.08466
G1 X135.714 Y118.353 E9.16452
G1 X135.405 Y121.071 E9.24458
G1 X135.166 Y123.888 E9.32733
G1 X135.081 Y124.418 E9.34304
G1 X134.918 Y124.929 E9.35874
G1 X134.682 Y125.41 E9.37442
G1 X134.332 Y125.915 E9.39241
G1 X132.012 Y128.331 E9.49044
G1 X130.169 Y130.367 E9.57082
G1 X129.246 Y131.449 E9.61245
G1 X128.778 Y131.981 E9.63319
G1 X128.395 Y132.356 E9.64888
G1 X127.96 Y132.67 E9.66458
G1 X127.484 Y132.916 E9.68026
G1 X126.976 Y133.088 E9.69596
G1 X126.448 Y133.184 E9.71167
G1 X125.779 Y133.212 E9.73127
G1 X89.858 Y133.213 E10.78263
G1 X89.157 Y133.203 E10.80315
G1 X88.622 Y133.155 E10.81888
G1 X88.101 Y133.029 E10.83456
G1 X87.605 Y132.826 E10.85025
G1 X87.144 Y132.552 E10.86595
G1 X86.728 Y132.213 E10.88165
G1 X86.368 Y131.816 E10.89734
G1 X86.017 Y131.271 E10.91631
G1 X85.26 Y129.805 E10.9646
G1 X83.966 Y127.41 E11.04428
G1 X82.591 Y125.029 E11.12476
G1 X81.17 Y122.722 E11.20406
G1 X79.666 Y120.428 E11.28435
G1 X78.123 Y118.214 E11.36333
G1 X77.041 Y116.752 E11.41657
G1 X76.725 Y116.313 E11.4324
G1 X76.445 Y115.856 E11.44809
G1 X76.236 Y115.362 E11.46379
G1 X76.103 Y114.842 E11.4795
G1 X76.039 Y114.225 E11.49765
G1 X76.037 Y77.969 E12.55883
G1 X76.047 Y77.291 E12.57867
G1 X76.095 Y76.757 E12.59437
G1 X76.222 Y76.236 E12.61006
G1 X76.425 Y75.739 E12.62577
G1 X76.699 Y75.278 E12.64147
G1 X77.038 Y74.863 E12.65715
M204 S2000
M205 X10 Y10
G0 X77.43 Y75.036
M204 S1000
M205 X8 Y8
G1 X77.821 Y74.716 E12.67194
G1 X78.258 Y74.461 E12.68675
G1 X78.729 Y74.278 E12.70154
G1 X79.224 Y74.172 E12.71636
G1 X79.667 Y74.136 E12.72937
G1 X82.98 Y74.135 E12.82633
G1 X83.911 Y74.149 E12.85359
G1 X84.638 Y74.263 E12.87513
G1 X87.365 Y74.652 E12.95575
G1 X90.071 Y74.96 E13.03546
G1 X92.918 Y75.203 E13.11909
G1 X93.531 Y75.316 E13.13734
G1 X95.718 Y75.945 E13.20394
G1 X98.422 Y76.65 E13.28573
G1 X101.085 Y77.263 E13.36572
G1 X103.732 Y77.794 E13.44473
G1 X106.445 Y78.259 E13.5253
G1 X109.143 Y78.644 E13.60507
G1 X111.906 Y78.957 E13.68645
G1 X114.583 Y79.185 E13.76509
G1 X117.334 Y79.342 E13.84574
G1 X120.084 Y79.42 E13.92626
G1 X122.809 Y79.42 E14.00602
G1 X126.515 Y79.297 E14.11455
G1 X127.748 Y79.233 E14.15069
G1 X128.863 Y79.285 E14.18336
G1 X130.062 Y79.547 E14.21928
G1 X131.197 Y80.008 E14.25513
G1 X132.054 Y80.536 E14.2846
G1 X132.411 Y80.802 E14.29763
G1 X133.179 Y81.483 E14.32767
G1 X133.769 Y82.22 E14.3553
G1 X134.062 Y82.655 E14.37065
G1 X134.387 Y83.235 E14.39011
G1 X134.611 Y83.731 E14.40604
G1 X134.843 Y84.386 E14.42638
G1 X134.989 Y84.92 E14.44258
G1 X135.104 Y85.628 E14.46358
G1 X135.144 Y86.13 E14.47832
G1 X135.144 Y86.919 E14.50141
G1 X135.07 Y87.971 E14.53228
G1 X134.972 Y89.135 E14.56647
G1 X134.82 Y91.851 E14.64608
G1 X134.745 Y94.6 E14.72657
G1 X134.747 Y97.318 E14.80613
G1 X134.828 Y100.074 E14.88683
G1 X134.985 Y102.818 E14.96727
G1 X135.216 Y105.501 E15.04609
G1 X135.716 Y109.618 E15.16748
G1 X135.831 Y110.421 E15.19122
G1 X135.832 Y113.933 E15.29401
G1 X135.818 Y114.864 E15.32126
G1 X135.704 Y115.591 E15.3428
G1 X135.315 Y118.318 E15.42343
G1 X135.012 Y120.979 E15.50182
G1 X134.768 Y123.855 E15.5863
G1 X134.685 Y124.353 E15.60107
G1 X134.525 Y124.833 E15.61588
G1 X134.292 Y125.281 E15.63066
G1 X133.887 Y125.801 E15.64995
G1 X131.709 Y128.069 E15.74199
G1 X129.875 Y130.096 E15.822
G1 X128.946 Y131.185 E15.86389
G1 X128.478 Y131.717 E15.88463
G1 X128.115 Y132.069 E15.89943
G1 X127.701 Y132.359 E15.91422
G1 X127.247 Y132.581 E15.92902
G1 X126.763 Y132.728 E15.94382
G1 X126.067 Y132.813 E15.96434
G1 X89.863 Y132.813 E17.02399
G1 X89.162 Y132.803 E17.04451
G1 X88.659 Y132.756 E17.0593
G1 X88.169 Y132.63 E17.07411
G1 X87.706 Y132.428 E17.08889
G1 X87.279 Y132.156 E17.10371
G1 X86.901 Y131.821 E17.1185
G1 X86.502 Y131.333 E17.13695
G1 X85.855 Y130.096 E17.1778
G1 X85.612 Y129.614 E17.1936
G1 X84.306 Y127.199 E17.27396
G1 X82.94 Y124.833 E17.35393
G1 X81.518 Y122.525 E17.43327
G1 X79.996 Y120.202 E17.51456
G1 X78.445 Y117.976 E17.59396
G1 X77.366 Y116.518 E17.64705
G1 X77.05 Y116.079 E17.66288
G1 X76.788 Y115.647 E17.67767
G1 X76.597 Y115.179 E17.69247
G1 X76.483 Y114.686 E17.70728
G1 X76.439 Y114.202 E17.7215
G1 X76.437 Y77.975 E18.78183
G1 X76.447 Y77.297 E18.80167
G1 X76.495 Y76.793 E18.81649
G1 X76.621 Y76.304 E18.83127
G1 X76.822 Y75.84 E18.84607
G1 X77.094 Y75.414 E18.86087
G1 X77.43 Y75.036 E18.87567
M204 S2000
M205 X10 Y10
G1 F2400 E17.87567
G1 F600 Z1.2
G0 F2400 X84.537 Y112.309 Z1.2
M204 S1000
M205 X8 Y8
;TYPE:SUPPORT
G1 F600 Z0.2
G1 F2400 E18.87567
G1 F1500 X84.537 Y113.32 E18.90526
G1 X92.437 Y113.319 E19.13648
G1 X92.437 Y112.814 E19.15126
G1 X92.437 Y112.309 E19.16605
G1 X84.537 Y112.309 E19.39727
M204 S2000
M205 X10 Y10
G0 F2400 X85.042 Y112.814
M204 S1000
M205 X8 Y8
G1 F982 X91.932 Y112.814 E19.70531
M204 S2000
M205 X10 Y10
G1 F2400 E18.70531
G1 F600 Z1.2
G0 F2400 X96.647 Y115.49 Z1.2
M204 S1000
M205 X8 Y8
G1 F600 Z0.2
G1 F2400 E19.70531
G1 F1500 X96.648 Y123.39 E19.93653
G1 X97.659 Y123.39 E19.96612
G1 X97.659 Y115.995 E20.18257
G1 X97.658 Y115.49 E20.19735
G1 X96.647 Y115.49 E20.22694
M204 S2000
M205 X10 Y10
G0 F2400 X97.153 Y115.995
M204 S1000
M205 X8 Y8
G1 F980.4 X97.153 Y122.885 E20.53548
M204 S2000
M205 X10 Y10
G1 F2400 E19.53548
G1 F600 Z1.2
G0 F2400 X124.176 Y124.713 Z1.2
M204 S1000
M205 X8 Y8
G1 F600 Z0.2
G1 F2400 E20.53548
G1 F1500 X125.187 Y124.713 E20.56508
G1 X125.187 Y117.318 E20.78152
G1 X125.186 Y116.813 E20.7963
G1 X124.175 Y116.813 E20.82589
G1 X124.176 Y124.713 E21.05712
M204 S2000
M205 X10 Y10
G0 F2400 X124.681 Y124.208
M204 S1000
M205 X8 Y8
G1 F980.4 X124.681 Y117.318 E21.36566
M204 S2000
M205 X10 Y10
G1 F2400 E20.36566
G1 F600 Z1.2
;MESH:Short Connecting Rod.3MF(2)
G0 F2400 X83.496 Y78.522 Z1.2
M204 S1000
M205 X8 Y8
;TYPE:WALL-OUTER
G1 F600 Z0.2
G1 F2400 E21.36566
G1 F1500 X83.437 Y78.379 E21.37019
G1 X83.437 Y77.535 E21.39489
G1 X79.837 Y77.535 E21.50026
G1 X79.837 Y114.012 E22.5679
G1 X83.437 Y114.012 E22.67327
G1 X83.437 Y80.038 E23.66765
G1 X83.496 Y79.946 E23.67085
G1 X83.619 Y79.889 E23.67482
G1 X92.437 Y79.888 E23.93291
G1 X92.437 Y79.234 E23.95205
G1 X92.437 Y78.579 E23.97122
G1 X83.619 Y78.579 E24.22932
G1 X83.496 Y78.522 E24.23329
M204 S2000
M205 X10 Y10
G0 F2400 X83.437 Y78.379
G0 X83.437 Y78.333
G0 X83.582 Y79.006
M204 S1000
M205 X8 Y8
;TYPE:WALL-INNER
G1 F1398.6 X83.214 Y78.806 E24.24613
G1 F1500 X83.101 Y78.65 E24.25164
G1 X83.037 Y78.379 E24.25961
G1 X83.037 Y77.935 E24.27231
G1 X80.237 Y77.935 E24.3524
G1 X80.237 Y113.612 E25.37289
G1 X83.037 Y113.612 E25.45298
G1 X83.037 Y80.089 E26.41187
G1 X83.071 Y79.886 E26.41775
G1 X83.214 Y79.662 E26.42536
G1 F1398.6 X83.582 Y79.462 E26.4382
G1 F1315.8 X92.01 Y79.461 E26.71303
G1 F1318.7 X92.01 Y79.234 E26.72041
G1 X92.01 Y79.006 E26.72783
G1 F1315.8 X83.582 Y79.006 E27.00265
M204 S2000
M205 X10 Y10
G0 F2400 X83.582 Y79.279
G0 X82.695 Y79.752
M204 S1000
M205 X8 Y8
G1 F1500 X82.932 Y79.378 E27.01532
G1 X83.245 Y79.234 E27.02517
G1 X82.932 Y79.09 E27.03503
G1 X82.743 Y78.83 E27.04422
G1 X82.637 Y78.335 E27.0587
G1 X80.637 Y78.335 E27.11591
G1 X80.637 Y113.212 E28.11352
G1 X82.637 Y113.212 E28.17073
G1 X82.637 Y80.089 E29.11817
G1 X82.695 Y79.752 E29.12795
M204 S2000
M205 X10 Y10
G0 F2400 X82.337 Y79.618
M204 S1000
M205 X8 Y8
;TYPE:SKIN
G1 F1500 X82.573 Y79.241 E29.14097
G1 X82.405 Y79.003 E29.1495
G1 X82.33 Y78.716 E29.15818
G1 X81.017 Y78.715 E29.19661
G1 X81.017 Y112.832 E30.19518
G1 X82.257 Y112.832 E30.23147
G1 X82.259 Y80.06 E31.19067
G1 X82.337 Y79.618 E31.20381
M204 S2000
M205 X10 Y10
G0 F2400 X81.744 Y78.915
M204 S1000
M205 X8 Y8
G1 F1500 X82.235 Y79.406 E31.22413
M204 S2000
M205 X10 Y10
G0 F2400 X82.096 Y79.833
M204 S1000
M205 X8 Y8
G1 F1500 X81.216 Y78.953 E31.26056
M204 S2000
M205 X10 Y10
G0 F2400 X81.216 Y79.519
M204 S1000
M205 X8 Y8
G1 F1500 X82.061 Y80.364 E31.29553
M204 S2000
M205 X10 Y10
G0 F2400 X82.061 Y80.929
M204 S1000
M205 X8 Y8
G1 F1500 X81.216 Y80.084 E31.33051
M204 S2000
M205 X10 Y10
G0 F2400 X81.216 Y80.65
M204 S1000
M205 X8 Y8
G1 F1500 X82.061 Y81.495 E31.36549
M204 S2000
M205 X10 Y10
G0 F2400 X82.061 Y82.061
M204 S1000
M205 X8 Y8
G1 F1500 X81.216 Y81.216 E31.40046
M204 S2000
M205 X10 Y10
G0 F2400 X81.216 Y81.781
M204 S1000
M205 X8 Y8
G1 F1500 X82.061 Y82.626 E31.43544
M204 S2000
M205 X10 Y10
G0 F2400 X82.061 Y83.192
M204 S1000
M205 X8 Y8
G1 F1500 X81.216 Y82.347 E31.47042
M204 S2000
M205 X10 Y10
G0 F2400 X81.216 Y82.913
M204 S1000
M205 X8 Y8
G1 F1500 X82.061 Y83.758 E31.50539
M204 S2000
M205 X10 Y10
G0 F2400 X82.061 Y84.323
M204 S1000
M205 X8 Y8
G1 F1500 X81.216 Y83.478 E31.54037
M204 S2000
M205 X10 Y10
G0 F2400 X81.216 Y84.044
M204 S1000
M205 X8 Y8
G1 F1500 X82.061 Y84.889 E31.57535
M204 S2000
M205 X10 Y10
G0 F2400 X82.061 Y85.455
M204 S1000
M205 X8 Y8
G1 F1500 X81.216 Y84.61 E31.61032
M204 S2000
M205 X10 Y10
G0 F2400 X81.216 Y85.175
M204 S1000
M205 X8 Y8
G1 F1500 X82.06 Y86.02 E31.64528
M204 S2000
M205 X10 Y10
G0 F2400 X82.06 Y86.585
M204 S1000
M205 X8 Y8
G1 F1500 X81.216 Y85.741 E31.68021
M204 S2000
M205 X10 Y10
G0 F2400 X81.216 Y86.307
M204 S1000
M205 X8 Y8
G1 F1500 X82.06 Y87.151 E31.71515
M204 S2000
M205 X10 Y10
G0 F2400 X82.06 Y87.717
M204 S1000
M205 X8 Y8
G1 F1500 X81.216 Y86.873 E31.75008
M204 S2000
M205 X10 Y10
G0 F2400 X81.216 Y87.438
M204 S1000
M205 X8 Y8
G1 F1500 X82.06 Y88.282 E31.78502
M204 S2000
M205 X10 Y10
G0 F2400 X82.06 Y88.848
M204 S1000
M205 X8 Y8
G1 F1500 X81.216 Y88.004 E31.81995
M204 S2000
M205 X10 Y10
G0 F2400 X81.216 Y88.57
M204 S1000
M205 X8 Y8
G1 F1500 X82.06 Y89.414 E31.85489
M204 S2000
M205 X10 Y10
G0 F2400 X82.06 Y89.98
M204 S1000
M205 X8 Y8
G1 F1500 X81.216 Y89.135 E31.88985
M204 S2000
M205 X10 Y10
G0 F2400 X81.216 Y89.701
M204 S1000
M205 X8 Y8
G1 F1500 X82.06 Y90.545 E31.92478
M204 S2000
M205 X10 Y10
G0 F2400 X82.059 Y91.11
M204 S1000
M205 X8 Y8
G1 F1500 X81.216 Y90.267 E31.95968
M204 S2000
M205 X10 Y10
G0 F2400 X81.216 Y90.832
