;FLAVOR:Marlin
;TIME:8727
;Filament used: 6.80722m
;Layer height: 0.2
;MINX:60.461
;MINY:59.556
;MINZ:0.2
;MAXX:166.461
;MAXY:171.411
;MAXZ:3.96
;Generated with Cura_SteamEngine 5.2.1
M82 ;absolute extrusion mode
G21                                        ; metric values
G90                                        ; absolute positioning
M82                                        ; absolute extrusion mode
M104 S120                                  ; set hotend to 120
M190 S55           ; wait for bed
M300 S1000 P500                            ; BEEP heating done
G28                                        ; home
G0 Z5 F500                                 ; move up some
G0 X2 Y2 F2000                             ; Move to start line purge
G0 Z0.2 F500                               ; move down to purge line start
M109 S200         ; wait for hotend
G92 E0                                     ; zero the extruded length
G1 X50 E25 F500                            ; Extrude 25mm of filament in a 5cm line.
G92 E0                                     ; zero the extruded length again
G1 F300 E-1                                ; retact alittle
G1 X100 F4000                              ; Quickly wipe away from the filament line`
G92 E0
G92 E0
G1 F2400 E-1
;LAYER_COUNT:15
;LAYER:0
M107
M204 S2000
M205 X10 Y10
G1 F600 Z1.2
G0 F2400 X61.469 Y60.922 Z1.2
M204 S1000
M205 X8 Y8
;TYPE:SKIRT
G1 F600 Z0.2
G1 F2400 E0
G1 X61.872 Y60.526 E0.01654
G1 X62.326 Y60.19 E0.03307
G1 X62.824 Y59.921 E0.04963
G1 X63.354 Y59.725 E0.06617
G1 X63.907 Y59.606 E0.08273
G1 X64.49 Y59.557 E0.09985
G1 X161.811 Y59.556 E2.94833
G1 X162.509 Y59.566 E2.96877
G1 X163.073 Y59.614 E2.98533
G1 X163.623 Y59.741 E3.00186
G1 X164.151 Y59.945 E3.01842
G1 X164.645 Y60.22 E3.03497
G1 X165.094 Y60.563 E3.05151
G1 X165.491 Y60.965 E3.06805
G1 X165.828 Y61.42 E3.08462
G1 X166.096 Y61.917 E3.10114
G1 X166.292 Y62.447 E3.11768
G1 X166.412 Y63 E3.13425
G1 X166.461 Y63.584 E3.1514
G1 X166.461 Y154.751 E5.81976
G1 X166.449 Y155.578 E5.84397
G1 X166.381 Y156.399 E5.86808
G1 X166.267 Y157.072 E5.88806
G1 X166.087 Y157.766 E5.90904
G1 X165.85 Y158.431 E5.9297
G1 X165.569 Y159.043 E5.94942
G1 X165.225 Y159.648 E5.96979
G1 X164.816 Y160.24 E5.99085
G1 X164.365 Y160.783 E6.01151
G1 X163.889 Y161.263 E6.03129
G1 X163.366 Y161.707 E6.05137
G1 X162.779 Y162.124 E6.07245
G1 X162.32 Y162.406 E6.08821
G1 X161.643 Y162.761 E6.11059
G1 X159.261 Y164.054 E6.18992
G1 X156.896 Y165.426 E6.26994
G1 X154.605 Y166.843 E6.34879
G1 X152.323 Y168.345 E6.42875
G1 X149.769 Y170.13 E6.51995
G1 X149.232 Y170.446 E6.53818
G1 X148.536 Y170.782 E6.56081
G1 X147.904 Y171.008 E6.58045
G1 X147.242 Y171.19 E6.60055
G1 X146.559 Y171.315 E6.62087
G1 X145.695 Y171.397 E6.64627
G1 X144.745 Y171.411 E6.67408
G1 X143.336 Y171.4 E6.71532
G1 X142.46 Y171.336 E6.74103
G1 X141.818 Y171.222 E6.76011
G1 X141.269 Y171.082 E6.77669
G1 X139.678 Y170.63 E6.8251
G1 X137.052 Y169.926 E6.90468
G1 X134.398 Y169.293 E6.98454
G1 X131.718 Y168.735 E7.06466
G1 X129.045 Y168.254 E7.14415
G1 X126.404 Y167.857 E7.22232
G1 X123.691 Y167.527 E7.30231
G1 X120.985 Y167.275 E7.38186
G1 X118.25 Y167.099 E7.46207
G1 X115.58 Y167.003 E7.54027
G1 X112.837 Y166.981 E7.62056
G1 X110.13 Y167.037 E7.69981
G1 X107.421 Y167.169 E7.77919
G1 X104.722 Y167.377 E7.85842
G1 X101.996 Y167.665 E7.93865
G1 X99.345 Y168.021 E8.01694
G1 X96.633 Y168.464 E8.09737
G1 X93.967 Y168.978 E8.17684
G1 X91.324 Y169.564 E8.25607
G1 X88.718 Y170.219 E8.33472
G1 X87.052 Y170.681 E8.38532
G1 X85.261 Y171.194 E8.43985
G1 X84.559 Y171.315 E8.4607
G1 X83.695 Y171.397 E8.4861
G1 X82.745 Y171.411 E8.51391
G1 X81.336 Y171.4 E8.55515
G1 X80.457 Y171.336 E8.58095
G1 X79.783 Y171.213 E8.601
G1 X79.098 Y171.034 E8.62172
G1 X78.438 Y170.798 E8.64224
G1 X77.827 Y170.517 E8.66192
G1 X77.256 Y170.196 E8.6811
G1 X76.711 Y169.826 E8.70038
G1 X74.625 Y168.364 E8.77493
G1 X72.352 Y166.866 E8.85461
G1 X70.051 Y165.44 E8.93384
G1 X67.689 Y164.068 E9.01379
G1 X64.407 Y162.299 E9.12292
G1 X63.635 Y161.767 E9.15036
G1 X63.089 Y161.314 E9.17112
G1 X62.604 Y160.833 E9.19112
G1 X62.183 Y160.341 E9.21007
G1 X61.71 Y159.673 E9.23403
G1 X61.433 Y159.193 E9.25025
G1 X61.086 Y158.48 E9.27346
G1 X60.859 Y157.84 E9.29333
G1 X60.678 Y157.176 E9.31348
G1 X60.555 Y156.499 E9.33362
G1 X60.475 Y155.651 E9.35855
G1 X60.461 Y154.706 E9.38621
G1 X60.461 Y64.185 E12.03566
G1 X60.471 Y63.507 E12.05551
G1 X60.52 Y62.944 E12.07205
G1 X60.647 Y62.393 E12.0886
G1 X60.85 Y61.865 E12.10515
G1 X61.126 Y61.372 E12.12169
G1 X61.469 Y60.922 E12.13825
M204 S2000
M205 X10 Y10
G0 X61.862 Y61.085
M204 S1000
M205 X8 Y8
G1 X62.26 Y60.725 E12.15396
G1 X62.706 Y60.428 E12.16964
G1 X63.192 Y60.201 E12.18534
G1 X63.706 Y60.048 E12.20104
G1 X64.444 Y59.958 E12.2228
G1 X161.806 Y59.956 E15.07248
G1 X162.504 Y59.966 E15.09291
G1 X163.038 Y60.014 E15.1086
G1 X163.559 Y60.14 E15.12429
G1 X164.056 Y60.343 E15.14001
G1 X164.517 Y60.617 E15.1557
G1 X164.932 Y60.956 E15.17139
G1 X165.292 Y61.354 E15.18709
G1 X165.589 Y61.8 E15.20278
G1 X165.817 Y62.286 E15.21849
G1 X165.969 Y62.8 E15.23418
G1 X166.06 Y63.537 E15.25591
G1 X166.061 Y154.745 E17.92547
G1 X166.049 Y155.569 E17.94959
G1 X165.983 Y156.366 E17.973
G1 X165.88 Y156.972 E17.99099
G1 X165.7 Y157.666 E18.01198
G1 X165.487 Y158.264 E18.03056
G1 X165.206 Y158.876 E18.05027
G1 X164.896 Y159.42 E18.06859
G1 X164.487 Y160.012 E18.08965
G1 X164.081 Y160.501 E18.10826
G1 X163.605 Y160.981 E18.12804
G1 X163.134 Y161.381 E18.14613
G1 X162.351 Y161.937 E18.17423
G1 X161.48 Y162.394 E18.20302
G1 X159.075 Y163.699 E18.28311
G1 X156.706 Y165.074 E18.36328
G1 X154.381 Y166.512 E18.4433
G1 X152.096 Y168.016 E18.52336
G1 X149.54 Y169.802 E18.61463
G1 X149.057 Y170.086 E18.63103
G1 X148.307 Y170.44 E18.6553
G1 X147.798 Y170.622 E18.67112
G1 X147.136 Y170.804 E18.69122
G1 X146.521 Y170.917 E18.70952
G1 X145.676 Y170.997 E18.73436
G1 X144.739 Y171.011 E18.76179
G1 X143.351 Y171 E18.80242
G1 X142.503 Y170.938 E18.8273
G1 X141.788 Y170.812 E18.84855
G1 X139.809 Y170.252 E18.90875
G1 X137.144 Y169.537 E18.98951
G1 X134.474 Y168.9 E19.06985
G1 X131.792 Y168.341 E19.15004
G1 X129.144 Y167.865 E19.22879
G1 X126.441 Y167.458 E19.30879
G1 X123.74 Y167.13 E19.38843
G1 X121.014 Y166.877 E19.46856
G1 X118.289 Y166.701 E19.54848
G1 X115.562 Y166.603 E19.62835
G1 X112.832 Y166.581 E19.70826
G1 X110.138 Y166.637 E19.78712
G1 X107.369 Y166.772 E19.86827
G1 X104.686 Y166.978 E19.94702
G1 X101.972 Y167.265 E20.0269
G1 X99.258 Y167.63 E20.10705
G1 X96.571 Y168.069 E20.18674
G1 X93.903 Y168.583 E20.26627
G1 X91.211 Y169.179 E20.34697
G1 X88.6 Y169.836 E20.42577
G1 X86.942 Y170.296 E20.47613
G1 X85.16 Y170.806 E20.53038
G1 X84.521 Y170.917 E20.54937
G1 X83.676 Y170.997 E20.57421
G1 X82.739 Y171.011 E20.60164
G1 X81.351 Y171 E20.64226
G1 X80.499 Y170.938 E20.66727
G1 X79.884 Y170.826 E20.68556
G1 X79.199 Y170.647 E20.70629
G1 X78.605 Y170.435 E20.72475
G1 X77.994 Y170.154 E20.74443
G1 X77.48 Y169.864 E20.7617
G1 X76.94 Y169.498 E20.7808
G1 X74.852 Y168.035 E20.85542
G1 X72.577 Y166.535 E20.93518
G1 X70.241 Y165.088 E21.0156
G1 X67.901 Y163.728 E21.09482
G1 X64.617 Y161.959 E21.204
G1 X63.862 Y161.438 E21.23085
G1 X63.371 Y161.03 E21.24953
G1 X62.886 Y160.549 E21.26952
G1 X62.506 Y160.106 E21.28661
G1 X61.913 Y159.267 E21.31668
G1 X61.452 Y158.317 E21.34758
G1 X61.245 Y157.735 E21.36566
G1 X61.064 Y157.071 E21.38581
G1 X60.953 Y156.461 E21.40396
G1 X60.875 Y155.632 E21.42833
G1 X60.861 Y154.7 E21.45561
G1 X60.861 Y64.191 E24.10471
G1 X60.871 Y63.513 E24.12456
G1 X60.919 Y62.979 E24.14025
G1 X61.046 Y62.458 E24.15594
G1 X61.249 Y61.961 E24.17166
G1 X61.523 Y61.5 E24.18735
G1 X61.862 Y61.085 E24.20304
M204 S2000
M205 X10 Y10
G0 X62.254 Y61.258
M204 S1000
M205 X8 Y8
G1 X62.645 Y60.938 E24.21783
G1 X63.082 Y60.683 E24.23263
G1 X63.553 Y60.5 E24.24742
G1 X64.048 Y60.394 E24.26224
G1 X64.701 Y60.358 E24.28138
G1 X161.8 Y60.356 E27.12336
G1 X162.498 Y60.366 E27.1438
G1 X163.001 Y60.413 E27.15858
G1 X163.491 Y60.539 E27.17339
G1 X163.955 Y60.741 E27.1882
G1 X164.381 Y61.013 E27.203
G1 X164.759 Y61.348 E27.21778
G1 X165.079 Y61.739 E27.23257
G1 X165.334 Y62.176 E27.24738
G1 X165.517 Y62.647 E27.26217
G1 X165.624 Y63.141 E27.27696
G1 X165.66 Y63.795 E27.29613
G1 X165.661 Y154.74 E29.95799
G1 X165.65 Y155.545 E29.98156
G1 X165.584 Y156.333 E30.0047
G1 X165.493 Y156.871 E30.02067
G1 X165.313 Y157.565 E30.04166
G1 X165.123 Y158.097 E30.05819
G1 X164.842 Y158.709 E30.0779
G1 X164.567 Y159.193 E30.09419
G1 X164.158 Y159.785 E30.11525
G1 X163.797 Y160.219 E30.13178
G1 X163.321 Y160.699 E30.15156
G1 X162.902 Y161.055 E30.16766
G1 X162.14 Y161.596 E30.19501
G1 X161.311 Y162.031 E30.22241
G1 X158.863 Y163.359 E30.30392
G1 X156.506 Y164.727 E30.38369
G1 X154.174 Y166.169 E30.46394
G1 X151.869 Y167.687 E30.54472
G1 X149.103 Y169.619 E30.64347
G1 X148.213 Y170.051 E30.67243
G1 X147.692 Y170.237 E30.68862
G1 X147.03 Y170.419 E30.70871
G1 X146.483 Y170.519 E30.72499
G1 X145.657 Y170.597 E30.74927
G1 X144.733 Y170.611 E30.77632
G1 X143.465 Y170.601 E30.81343
G1 X142.558 Y170.543 E30.84004
G1 X142.013 Y170.446 E30.85624
G1 X141.487 Y170.312 E30.87212
G1 X139.925 Y169.869 E30.91965
G1 X137.235 Y169.147 E31.00117
G1 X134.577 Y168.514 E31.08114
G1 X131.873 Y167.95 E31.16198
G1 X129.169 Y167.464 E31.2424
G1 X126.516 Y167.065 E31.32092
G1 X123.75 Y166.729 E31.40247
G1 X121.044 Y166.477 E31.48202
G1 X118.329 Y166.302 E31.56165
G1 X115.58 Y166.203 E31.64216
G1 X112.827 Y166.181 E31.72274
G1 X110.109 Y166.237 E31.80231
G1 X107.392 Y166.37 E31.88193
G1 X104.612 Y166.584 E31.96354
G1 X101.914 Y166.868 E32.04294
G1 X99.212 Y167.232 E32.12274
G1 X96.496 Y167.676 E32.20329
G1 X93.82 Y168.191 E32.28305
G1 X91.133 Y168.787 E32.36361
G1 X88.523 Y169.443 E32.44237
G1 X86.806 Y169.918 E32.49452
G1 X85.043 Y170.422 E32.54819
G1 X84.483 Y170.519 E32.56482
G1 X83.657 Y170.597 E32.5891
G1 X82.733 Y170.611 E32.61615
G1 X81.465 Y170.601 E32.65327
G1 X80.555 Y170.542 E32.67996
G1 X79.985 Y170.439 E32.69691
G1 X79.3 Y170.26 E32.71763
G1 X78.772 Y170.071 E32.73405
G1 X78.161 Y169.79 E32.75373
G1 X77.704 Y169.533 E32.76908
G1 X77.17 Y169.171 E32.78796
G1 X75.073 Y167.701 E32.86291
G1 X72.786 Y166.194 E32.94308
G1 X70.447 Y164.745 E33.02361
G1 X68.098 Y163.38 E33.10313
G1 X64.83 Y161.619 E33.21178
G1 X64.089 Y161.108 E33.23813
G1 X63.653 Y160.746 E33.25471
G1 X63.168 Y160.265 E33.27471
G1 X62.83 Y159.871 E33.2899
G1 X62.261 Y159.066 E33.31875
G1 X61.817 Y158.155 E33.34842
G1 X61.631 Y157.63 E33.36472
G1 X61.45 Y156.966 E33.38486
G1 X61.351 Y156.424 E33.40099
G1 X61.275 Y155.615 E33.42477
G1 X61.261 Y154.694 E33.45173
G1 X61.261 Y64.197 E36.10048
G1 X61.271 Y63.519 E36.12033
G1 X61.319 Y63.015 E36.13514
G1 X61.445 Y62.526 E36.14992
G1 X61.646 Y62.062 E36.16472
G1 X61.918 Y61.636 E36.17952
G1 X62.254 Y61.258 E36.19432
M204 S2000
M205 X10 Y10
G1 F2400 E35.19432
G1 F600 Z1.2
;MESH:Mounting Platform Small.3MF
G0 F2400 X69.807 Y74.803 Z1.2
M204 S1000
M205 X8 Y8
;TYPE:WALL-OUTER
G1 F600 Z0.2
G1 F2400 E36.19432
G1 F1500 X69.843 Y74.775 E36.19566
G1 X75.89 Y71.282 E36.40005
G1 X76.027 Y71.3 E36.4041
G1 X82.077 Y74.794 E36.60858
G1 X82.143 Y74.921 E36.61277
G1 X82.141 Y81.913 E36.81742
G1 X82.045 Y82.049 E36.82229
G1 X76.029 Y85.523 E37.02562
G1 X75.887 Y85.54 E37.02981
G1 X69.843 Y82.049 E37.2341
G1 X69.746 Y81.91 E37.23906
G1 X69.744 Y74.905 E37.44409
G1 X69.807 Y74.803 E37.4476
M204 S2000
M205 X10 Y10
G0 F2400 X69.843 Y74.775
G0 X69.977 Y74.698
G0 X69.533 Y74.511
M204 S1000
M205 X8 Y8
;TYPE:WALL-INNER
G1 F1500 X69.643 Y74.429 E37.45152
G1 X75.643 Y70.963 E37.64972
G1 X75.84 Y70.891 E37.65572
G1 X76.177 Y70.929 E37.66542
G1 X82.286 Y74.455 E37.86718
G1 X82.437 Y74.606 E37.87329
G1 X82.545 Y74.845 E37.88079
G1 X82.545 Y81.886 E38.08219
G1 X82.511 Y82.072 E38.0876
G1 X82.352 Y82.333 E38.09634
G1 X76.199 Y85.885 E38.29956
G1 X76.013 Y85.938 E38.30509
G1 X75.691 Y85.889 E38.31441
G1 X69.562 Y82.348 E38.51687
G1 X69.436 Y82.195 E38.52254
G1 X69.344 Y81.992 E38.52892
G1 X69.344 Y74.818 E38.73412
G1 X69.533 Y74.511 E38.74443
M204 S2000
M205 X10 Y10
G0 F2400 X69.097 Y74.416
M204 S1000
M205 X8 Y8
G1 F1500 X69.259 Y74.219 E38.75173
G1 X69.443 Y74.082 E38.75829
G1 X75.443 Y70.616 E38.95649
G1 X75.771 Y70.497 E38.96647
G1 X76.158 Y70.505 E38.97754
G1 X76.371 Y70.573 E38.98394
G1 X82.514 Y74.126 E39.18692
G1 X82.714 Y74.31 E39.1947
G1 X82.846 Y74.515 E39.20167
G1 X82.944 Y74.905 E39.21317
G1 X82.945 Y81.892 E39.41303
G1 X82.889 Y82.202 E39.42204
G1 X82.665 Y82.569 E39.43434
G1 X82.445 Y82.742 E39.44234
G1 X76.368 Y86.248 E39.64302
G1 X76.059 Y86.335 E39.6522
G1 X75.754 Y86.324 E39.66093
G1 X75.527 Y86.255 E39.66772
G1 X69.443 Y82.742 E39.86867
G1 X69.259 Y82.605 E39.87523
G1 X69.097 Y82.408 E39.88253
G1 X68.984 Y82.158 E39.89038
G1 X68.944 Y81.875 E39.89855
G1 X68.944 Y74.949 E40.09666
G1 X68.984 Y74.666 E40.10484
G1 X69.097 Y74.416 E40.11268
M204 S2000
M205 X10 Y10
G1 F2400 E39.11268
G1 F600 Z1.2
G0 F2400 X84.146 Y69.291 Z1.2
M204 S1000
M205 X8 Y8
;TYPE:WALL-OUTER
G1 F600 Z0.2
G1 F2400 E40.11268
G1 F1500 X83.794 Y69.383 E40.12333
G1 X83.443 Y69.411 E40.13364
G1 X83.095 Y69.377 E40.14387
G1 X82.794 Y69.296 E40.153
G1 X82.46 Y69.145 E40.16373
G1 X82.19 Y68.954 E40.17341
G1 X81.941 Y68.708 E40.18365
G1 X81.737 Y68.426 E40.19384
G1 X81.576 Y68.078 E40.20506
G1 X81.495 Y67.778 E40.21416
G1 X81.461 Y67.431 E40.22436
G1 X81.495 Y67.043 E40.23576
G1 X81.576 Y66.743 E40.24485
G1 X81.737 Y66.396 E40.25605
G1 X81.941 Y66.114 E40.26624
G1 X82.19 Y65.868 E40.27648
G1 X82.446 Y65.686 E40.28568
G1 X82.793 Y65.525 E40.29687
G1 X83.112 Y65.44 E40.30654
G1 X83.443 Y65.411 E40.31626
G1 X83.794 Y65.438 E40.32656
G1 X84.13 Y65.525 E40.33672
G1 X84.476 Y65.686 E40.34789
G1 X84.758 Y65.89 E40.35808
G1 X85.004 Y66.14 E40.36835
G1 X85.186 Y66.396 E40.37754
G1 X85.346 Y66.74 E40.38864
G1 X85.428 Y67.043 E40.39783
G1 X85.461 Y67.391 E40.40806
G1 X85.434 Y67.743 E40.41839
G1 X85.347 Y68.078 E40.42853
G1 X85.192 Y68.417 E40.43944
G1 X84.988 Y68.702 E40.44969
G1 X84.732 Y68.954 E40.46021
G1 X84.477 Y69.135 E40.46936
G1 X84.146 Y69.291 E40.48007
M204 S2000
M205 X10 Y10
G0 F2400 X83.953 Y69.341
G0 X84.282 Y69.667
M204 S1000
M205 X8 Y8
;TYPE:WALL-INNER
G1 F1500 X83.884 Y69.774 E40.49186
G1 X83.407 Y69.809 E40.50554
G1 X82.991 Y69.763 E40.51751
G1 X82.595 Y69.648 E40.52931
G1 X82.26 Y69.491 E40.53989
G1 X81.958 Y69.28 E40.55043
G1 X81.657 Y68.99 E40.56238
G1 X81.411 Y68.658 E40.5742
G1 X81.19 Y68.182 E40.58921
G1 X81.092 Y67.792 E40.60071
G1 X81.062 Y67.453 E40.61045
G1 X81.109 Y66.939 E40.62521
G1 X81.224 Y66.544 E40.63698
G1 X81.411 Y66.164 E40.64909
G1 X81.657 Y65.832 E40.66091
G1 X81.88 Y65.608 E40.66996
G1 X82.31 Y65.304 E40.68502
G1 X82.689 Y65.139 E40.69684
G1 X83.043 Y65.046 E40.70731
G1 X83.409 Y65.012 E40.71783
G1 X83.828 Y65.039 E40.72983
G1 X84.234 Y65.139 E40.7418
G1 X84.708 Y65.36 E40.75675
G1 X85.041 Y65.607 E40.76861
G1 X85.265 Y65.831 E40.77767
G1 X85.512 Y66.164 E40.78953
G1 X85.732 Y66.636 E40.80443
G1 X85.814 Y66.939 E40.81341
G1 X85.859 Y67.357 E40.82543
G1 X85.832 Y67.777 E40.83747
G1 X85.709 Y68.253 E40.85153
G1 X85.531 Y68.63 E40.86346
G1 X85.307 Y68.944 E40.87449
G1 X84.964 Y69.28 E40.88823
G1 X84.636 Y69.505 E40.8996
G1 X84.282 Y69.667 E40.91074
M204 S2000
M205 X10 Y10
G0 F2400 X84.409 Y69.94
G0 X85.158 Y69.436
G0 X85.749 Y68.733
G0 X86.064 Y67.868
G0 X86.064 Y66.953
G0 X85.749 Y66.089
G0 X84.051 Y64.616
M204 S1000
M205 X8 Y8
G1 F1234.6 X83.46 Y64.583 E40.93131
G1 F1257.9 X82.966 Y64.604 E40.94818
M204 S2000
M205 X10 Y10
G1 F2400 E39.94818
G1 F600 Z1.2
G0 F2400 X82.941 Y64.757 Z1.2
G0 X88.809 Y76.903
M204 S1000
M205 X8 Y8
;TYPE:WALL-OUTER
G1 F600 Z0.2
G1 F2400 E40.94818
G1 F1500 X89.122 Y77.049 E40.95829
G1 X89.398 Y77.245 E40.96819
G1 X89.661 Y77.51 E40.97912
G1 X89.849 Y77.776 E40.98865
G1 X90.002 Y78.11 E40.99941
G1 X90.088 Y78.434 E41.00922
G1 X90.118 Y78.78 E41.01938
G1 X90.089 Y79.123 E41.02946
G1 X90.003 Y79.448 E41.0393
G1 X89.852 Y79.779 E41.04995
G1 X89.65 Y80.066 E41.06022
G1 X89.402 Y80.314 E41.07048
G1 X89.134 Y80.505 E41.08012
G1 X88.785 Y80.666 E41.09137
